static/images/logo.svg

<?xml version="1.0" encoding="UTF-8"?>
<svg width="196px" height="58px" viewBox="0 0 196 58" version="1.1" xmlns="http://www.w3.org/2000/svg" xmlns:xlink="http://www.w3.org/1999/xlink">
    <title>Alyvia</title>
    <g id="Page-1" stroke="none" stroke-width="1" fill="none" fill-rule="evenodd">
        <path d="M12.3,45 C12.6,45 12.72,44.64 12.48,44.52 C11.76,44.34 10.74,43.68 10.74,42.06 C10.74,41.64 10.8,41.16 10.92,40.56 L11.4,39.06 L21.24,39.06 L21.72,40.56 C21.84,41.16 21.96,41.64 21.96,42.06 C21.96,43.68 20.88,44.34 20.16,44.52 C19.92,44.58 19.92,45 20.34,45 L37.38,45 C37.68,45 37.8,44.64 37.62,44.52 C36.72,44.04 35.52,42.96 34.86,40.68 L34.74,40.26 C31.5,29.7 28.5,19.8 25.26,9.3 C25.08,8.64 25.02,8.16 25.02,7.74 C25.02,6.9 25.32,6.48 25.62,6.24 C25.86,6 25.74,5.7 25.44,5.7 L12,5.7 L12,5.76 C11.64,5.76 11.58,6 11.82,6.24 C12.12,6.48 12.42,6.9 12.42,7.74 C12.42,8.1 12.36,8.64 12.18,9.24 L3.12,40.2 C2.4,42.72 1.2,43.98 0.24,44.52 C0.06,44.64 0.18,45 0.48,45 L12.3,45 Z M19.32,32.76 L13.2,32.76 L16.2,22.56 L19.32,32.76 Z M57.3133333,45.06 C57.5533333,45 57.6733333,44.7 57.4933333,44.58 C56.9533333,44.1 56.2933333,43.2 56.1133333,41.64 L56.1133333,6.12 C56.1133333,4.08 56.9533333,2.46 57.6133333,1.5 C57.7333333,1.32 57.5533333,1.14 57.3733333,1.26 C54.2533333,3 49.2133333,4.08 44.8933333,4.08 C43.9933333,4.08 43.0933333,4.08 42.2533333,3.96 C42.1333333,3.96 42.0733333,4.08 42.1333333,4.2 C42.7333333,4.68 43.5133333,5.88 43.5133333,8.52 L43.5133333,41.22 C43.4533333,43.08 42.6733333,44.04 42.0733333,44.58 C41.8933333,44.7 42.0133333,45.06 42.2533333,45.06 L57.3133333,45.06 Z M77.9666667,57.42 C82.7666667,57.42 87.5666667,56.1 90.7466667,54.24 C97.4066667,50.4 98.6666667,43.8 98.7266667,37.86 L98.7266667,16.98 C98.7266667,14.94 99.5666667,13.38 100.166667,12.48 C100.286667,12.3 100.106667,12.12 99.9266667,12.24 C96.8066667,13.98 91.7666667,15.12 87.4466667,15.12 C86.5466667,15.12 85.6466667,15.06 84.8066667,14.94 C84.6866667,14.94 84.5666667,15.12 84.6866667,15.18 C85.2866667,15.66 86.0066667,16.86 86.0666667,19.56 C86.0666667,23.76 86.0066667,28.02 86.0066667,32.1 C86.0066667,35.52 85.7066667,38.7 81.7466667,38.7 C81.4466667,38.7 81.0866667,38.64 80.7266667,38.64 C76.4066667,37.8 75.9866667,32.88 75.9866667,25.14 L75.9866667,18.78 C76.1066667,16.98 76.8266667,15.96 77.4266667,15.48 C77.6066667,15.3 77.4866667,15 77.2466667,15 L62.1866667,15 C62.0666667,15 61.9466667,15.12 61.9466667,15.3 C61.9466667,15.36 61.9466667,15.42 62.0066667,15.48 C62.5466667,15.96 63.2666667,16.8 63.3866667,18.36 L63.3866667,26.16 C63.3866667,36.18 64.0466667,40.92 71.4266667,44.76 C74.0066667,45.66 76.2866667,46.08 78.2666667,46.08 C81.6866667,46.08 84.2666667,44.82 86.0666667,42.66 L86.0666667,42.84 C86.0666667,44.46 85.3466667,48.42 79.9466667,49.44 C78.9866667,49.62 78.0266667,49.74 77.0666667,49.74 C73.2866667,49.74 69.9266667,48.42 68.4266667,46.5 C68.1866667,46.14 67.5866667,46.2 67.3466667,46.56 L64.8866667,50.64 C64.5266667,51.24 64.6466667,51.96 65.0666667,52.44 C68.2466667,56.04 73.1066667,57.42 77.9666667,57.42 Z M129.88,45 C130.24,45 130.36,44.7 130.12,44.58 C129.22,44.28 128.44,43.2 128.44,42.06 C128.44,41.82 128.5,41.58 128.56,41.34 L134.68,18.96 C135.04,17.16 135.52,16.14 136.06,15.6 C136.3,15.48 136.18,15.18 135.94,15.18 L125.56,15.12 C125.02,15.12 124.9,15.42 125.08,15.54 C125.68,16.02 126.46,16.62 126.46,18.12 L126.46,18.48 C126.16,22.8 124.24,33.18 122.08,36.42 C119.5,30.3 118.9,22.8 118.9,20.52 L118.9,20.04 C118.96,17.28 119.5,15.84 120.1,15.36 C120.16,15.24 120.1,15.12 119.98,15.12 L104.74,15.12 C104.56,15.12 104.38,15.24 104.56,15.42 C105.04,15.72 105.7,16.02 106.12,17.64 L112.48,41.22 C112.54,41.46 112.54,41.7 112.54,41.88 C112.54,43.26 111.58,44.22 111.04,44.58 C110.86,44.7 110.98,45 111.22,45 L129.88,45 Z M156.173333,45 C156.473333,45 156.593333,44.64 156.353333,44.52 C155.693333,43.92 154.913333,42.84 154.793333,40.86 L154.793333,17.22 C154.853333,15.24 155.453333,14.76 155.933333,12.48 C156.173333,11.58 156.293333,10.68 156.293333,9.78 C156.293333,6.66 154.793333,4.08 152.813333,2.58 C151.433333,1.62 150.113333,0.9 147.533333,0.84 C142.133333,1.14 139.613333,4.56 139.613333,7.74 C139.733333,10.74 142.253333,12.9 146.093333,12.9 C146.453333,12.9 146.813333,12.9 147.173333,12.84 C150.233333,12.54 152.633333,10.98 153.893333,8.76 C153.353333,12.78 149.753333,15.48 144.893333,15.48 C143.513333,15.48 142.013333,15.3 140.513333,14.82 C140.333333,14.76 140.273333,15 140.393333,15.12 C140.993333,15.66 141.833333,16.92 141.833333,19.86 L141.893333,41.34 C141.713333,43.02 140.933333,43.98 140.333333,44.52 C140.153333,44.64 140.273333,45 140.513333,45 L156.173333,45 Z M172.386667,45.72 C173.046667,45.72 173.646667,45.66 174.306667,45.66 C177.246667,45.3 179.646667,43.62 181.386667,41.76 C181.206667,43.2 180.546667,44.04 180.006667,44.52 C179.826667,44.7 179.946667,45 180.186667,45 L195.246667,45 C195.486667,45 195.606667,44.7 195.426667,44.52 C194.826667,43.98 194.046667,43.02 193.986667,41.22 L193.986667,16.8 C193.986667,14.7 194.826667,13.08 195.426667,12.12 C195.546667,12 195.366667,11.76 195.186667,11.88 C192.126667,13.62 187.086667,14.7 182.766667,14.7 C181.866667,14.7 180.966667,14.64 180.126667,14.58 C180.006667,14.58 179.946667,14.7 180.066667,14.82 C180.426667,15.18 180.966667,15.84 181.206667,17.16 C180.006667,15.96 178.446667,14.82 176.286667,14.34 C175.506667,14.22 174.786667,14.16 174.066667,14.16 C170.346667,14.16 167.106667,15.72 164.766667,17.88 C161.526667,20.76 159.426667,24.96 159.186667,30.3 L159.186667,31.02 C159.186667,35.4 160.806667,39.48 163.566667,42.24 C166.206667,44.94 168.966667,45.72 172.386667,45.72 Z M175.746667,38.82 L175.206667,38.82 C171.366667,38.46 169.446667,34.38 169.446667,30.36 C169.446667,26.16 171.546667,22.02 175.926667,21.96 C178.926667,21.96 181.386667,24.6 181.386667,28.68 L181.386667,31.68 C181.386667,35.4 179.226667,38.82 175.746667,38.82 Z" id="Alyvia" fill="#2C343C" fill-rule="nonzero"></path>
    </g>
</svg>

<svg width="196" height="58" viewBox="0 0 196 58" xmlns="http://www.w3.org/2000/svg"><path d="M12.3 45c.3 0 .42-.36.18-.48-.72-.18-1.74-.84-1.74-2.46 0-.42.06-.9.18-1.5l.48-1.5h9.84l.48 1.5c.12.6.24 1.08.24 1.5 0 1.62-1.08 2.28-1.8 2.46-.24.06-.24.48.18.48h17.04c.3 0 .42-.36.24-.48-.9-.48-2.1-1.56-2.76-3.84l-.12-.42C31.5 29.7 28.5 19.8 25.26 9.3c-.18-.66-.24-1.14-.24-1.56 0-.84.3-1.26.6-1.5.24-.24.12-.54-.18-.54H12v.06c-.36 0-.42.24-.18.48.3.24.6.66.6 1.5 0 .36-.06.9-.24 1.5L3.12 40.2C2.4 42.72 1.2 43.98.24 44.52c-.18.12-.06.48.24.48H12.3zm7.02-12.24H13.2l3-10.2 3.12 10.2zm37.993 12.3c.24-.06.36-.36.18-.48-.54-.48-1.2-1.38-1.38-2.94V6.12c0-2.04.84-3.66 1.5-4.62.12-.18-.06-.36-.24-.24-3.12 1.74-8.16 2.82-12.48 2.82-.9 0-1.8 0-2.64-.12-.12 0-.18.12-.12.24.6.48 1.38 1.68 1.38 4.32v32.7c-.06 1.86-.84 2.82-1.44 3.36-.18.12-.06.48.18.48h15.06zm20.654 12.36c4.8 0 9.6-1.32 12.78-3.18 6.66-3.84 7.92-10.44 7.98-16.38V16.98c0-2.04.84-3.6 1.44-4.5.12-.18-.06-.36-.24-.24-3.12 1.74-8.16 2.88-12.48 2.88-.9 0-1.8-.06-2.64-.18-.12 0-.24.18-.12.24.6.48 1.32 1.68 1.38 4.38 0 4.2-.06 8.46-.06 12.54 0 3.42-.3 6.6-4.26 6.6-.3 0-.66-.06-1.02-.06-4.32-.84-4.74-5.76-4.74-13.5v-6.36c.12-1.8.84-2.82 1.44-3.3.18-.18.06-.48-.18-.48h-15.06c-.12 0-.24.12-.24.3 0 .06 0 .12.06.18.54.48 1.26 1.32 1.38 2.88v7.8c0 10.02.66 14.76 8.04 18.6 2.58.9 4.86 1.32 6.84 1.32 3.42 0 6-1.26 7.8-3.42v.18c0 1.62-.72 5.58-6.12 6.6-.96.18-1.92.3-2.88.3-3.78 0-7.14-1.32-8.64-3.24-.24-.36-.84-.3-1.08.06l-2.46 4.08c-.36.6-.24 1.32.18 1.8 3.18 3.6 8.04 4.98 12.9 4.98zM129.88 45c.36 0 .48-.3.24-.42-.9-.3-1.68-1.38-1.68-2.52 0-.24.06-.48.12-.72l6.12-22.38c.36-1.8.84-2.82 1.38-3.36.24-.12.12-.42-.12-.42l-10.38-.06c-.54 0-.66.3-.48.42.6.48 1.38 1.08 1.38 2.58v.36c-.3 4.32-2.22 14.7-4.38 17.94-2.58-6.12-3.18-13.62-3.18-15.9v-.48c.06-2.76.6-4.2 1.2-4.68.06-.12 0-.24-.12-.24h-15.24c-.18 0-.36.12-.18.3.48.3 1.14.6 1.56 2.22l6.36 23.58c.06.24.06.48.06.66 0 1.38-.96 2.34-1.5 2.7-.18.12-.06.42.18.42h18.66zm26.293 0c.3 0 .42-.36.18-.48-.66-.6-1.44-1.68-1.56-3.66V17.22c.06-1.98.66-2.46 1.14-4.74.24-.9.36-1.8.36-2.7 0-3.12-1.5-5.7-3.48-7.2-1.38-.96-2.7-1.68-5.28-1.74-5.4.3-7.92 3.72-7.92 6.9.12 3 2.64 5.16 6.48 5.16.36 0 .72 0 1.08-.06 3.06-.3 5.46-1.86 6.72-4.08-.54 4.02-4.14 6.72-9 6.72-1.38 0-2.88-.18-4.38-.66-.18-.06-.24.18-.12.3.6.54 1.44 1.8 1.44 4.74l.06 21.48c-.18 1.68-.96 2.64-1.56 3.18-.18.12-.06.48.18.48h15.66zm16.214.72c.66 0 1.26-.06 1.92-.06 2.94-.36 5.34-2.04 7.08-3.9-.18 1.44-.84 2.28-1.38 2.76-.18.18-.06.48.18.48h15.06c.24 0 .36-.3.18-.48-.6-.54-1.38-1.5-1.44-3.3V16.8c0-2.1.84-3.72 1.44-4.68.12-.12-.06-.36-.24-.24-3.06 1.74-8.1 2.82-12.42 2.82-.9 0-1.8-.06-2.64-.12-.12 0-.18.12-.06.24.36.36.9 1.02 1.14 2.34-1.2-1.2-2.76-2.34-4.92-2.82-.78-.12-1.5-.18-2.22-.18-3.72 0-6.96 1.56-9.3 3.72-3.24 2.88-5.34 7.08-5.58 12.42v.72c0 4.38 1.62 8.46 4.38 11.22 2.64 2.7 5.4 3.48 8.82 3.48zm3.36-6.9h-.54c-3.84-.36-5.76-4.44-5.76-8.46 0-4.2 2.1-8.34 6.48-8.4 3 0 5.46 2.64 5.46 6.72v3c0 3.72-2.16 7.14-5.64 7.14z" fill="#2C343C" fill-rule="nonzero"/></svg>
